images/themes/default/mActionEllipseCenter2Points.svg

<svg height="24" viewBox="0 0 24 24" width="24" xmlns="http://www.w3.org/2000/svg"><g transform="matrix(.92190879 -.387407 .387407 .92190879 -4.88641 3.0384)"><ellipse cx="11.354177" cy="13.904556" fill="none" rx="7.724184" ry="4.724184" stroke="#8cbe8c" stroke-width="2.551632"/><g fill="#bebebe" stroke="#8c8c8c"><path d="m.89982258 12.316814h3.00000012v3h-3.00000012z"/><path d="m9.7164284 11.991888h3.0000006v3h-3.0000006z"/><path d="m9.6009831 7.6161834 2.9999999-.0000001v3.0000007h-2.9999999z"/></g></g><g transform="translate(33)"><rect fill="#c4a000" height="11" rx="2.01149" width="11" x="-20" y="13"/><g fill="#fcffff"><path d="m-15 14v2.0625c-.537663.111041-1.024662.383291-1.375.78125l-1.78125-1.03125-.5.875 1.78125 1.03125c-.082063.247432-.125.506395-.125.78125s.04294.533818.125.78125l-1.78125 1.03125.5.875 1.78125-1.03125c.352503.40042.832682.670182 1.375.78125v2.0625h1v-2.0625c.537663-.111041 1.024662-.383291 1.375-.78125l1.78125 1.03125.5-.875-1.78125-1.03125c.082063-.247432.125-.506395.125-.78125s-.04294-.533818-.125-.78125l1.78125-1.03125-.5-.875-1.78125 1.03125c-.352503-.40042-.832682-.670182-1.375-.78125v-2.0625zm.5 3.5c.552 0 1 .448 1 1s-.448 1-1 1-1-.448-1-1 .448-1 1-1z"/><path d="m-19 19 9-.0096s0 0 0-2c0-2.9904-1-2.9904-4.5-2.9904s-4.5 0-4.5 3z" fill-rule="evenodd" opacity=".3"/></g></g></svg>

<?xml version="1.0" encoding="UTF-8" standalone="no"?>
<svg
   xmlns:dc="http://purl.org/dc/elements/1.1/"
   xmlns:cc="http://creativecommons.org/ns#"
   xmlns:rdf="http://www.w3.org/1999/02/22-rdf-syntax-ns#"
   xmlns:svg="http://www.w3.org/2000/svg"
   xmlns="http://www.w3.org/2000/svg"
   xmlns:sodipodi="http://sodipodi.sourceforge.net/DTD/sodipodi-0.dtd"
   xmlns:inkscape="http://www.inkscape.org/namespaces/inkscape"
   height="24"
   viewBox="0 0 24 24"
   width="24"
   version="1.1"
   id="svg4016"
   sodipodi:docname="mActionEllipseCenter2Points.svg"
   inkscape:version="0.92.1 r15371">
  <metadata
     id="metadata4022">
    <rdf:RDF>
      <cc:Work
         rdf:about="">
        <dc:format>image/svg+xml</dc:format>
        <dc:type
           rdf:resource="http://purl.org/dc/dcmitype/StillImage" />
        <dc:title></dc:title>
      </cc:Work>
    </rdf:RDF>
  </metadata>
  <defs
     id="defs4020" />
  <sodipodi:namedview
     pagecolor="#ffffff"
     bordercolor="#666666"
     borderopacity="1"
     objecttolerance="10"
     gridtolerance="10"
     guidetolerance="10"
     inkscape:pageopacity="0"
     inkscape:pageshadow="2"
     inkscape:window-width="1680"
     inkscape:window-height="991"
     id="namedview4018"
     showgrid="false"
     inkscape:zoom="31.083333"
     inkscape:cx="11.045195"
     inkscape:cy="12.41345"
     inkscape:window-x="0"
     inkscape:window-y="0"
     inkscape:window-maximized="1"
     inkscape:current-layer="svg4016"
     inkscape:measure-start="7.94638,12.8686"
     inkscape:measure-end="4.08579,12.8365" />
  <linearGradient
     gradientUnits="userSpaceOnUse"
     x1="-10"
     x2="-10"
     y1="15"
     y2="21"
     id="linearGradient3996">
    <stop
       offset="0"
       stop-color="#555753"
       id="stop3992" />
    <stop
       offset="1"
       stop-color="#555753"
       stop-opacity="0"
       id="stop3994" />
  </linearGradient>
  <g
     id="g4950">
    <g
       transform="rotate(-22.793251,5.0934779,13.639832)"
       id="g4859">
      <g
         id="g4938">
        <ellipse
           ry="4.724184"
           rx="7.724184"
           style="fill:none;stroke:#8cbe8c;stroke-width:2.55163217;stroke-miterlimit:4;stroke-dasharray:none;stroke-opacity:1"
           cy="13.904556"
           cx="11.354177"
           id="path4032" />
        <path
           d="M 0.89982258,12.316814 H 3.8998227 v 3 H 0.89982258 Z"
           id="path4012"
           inkscape:connector-curvature="0"
           style="fill:#bebebe;stroke:#8c8c8c;stroke-width:0.99999994" />
        <path
           d="m 9.7164284,11.991888 h 3.0000006 v 3 H 9.7164284 Z"
           id="path4012-3"
           inkscape:connector-curvature="0"
           style="fill:#bebebe;stroke:#8c8c8c;stroke-width:0.99999994" />
        <path
           d="m 9.6009831,7.6161834 2.9999999,-10e-8 V 10.616184 H 9.6009831 Z"
           id="path4012-6"
           inkscape:connector-curvature="0"
           style="fill:#bebebe;stroke:#8c8c8c;stroke-width:0.99999994" />
      </g>
    </g>
    <g
       transform="translate(33)"
       id="g4004">
      <rect
         height="11"
         rx="2.0114901"
         width="11"
         x="-20"
         y="13"
         id="rect3998"
         style="fill:#c4a000" />
      <path
         d="m -15,14 v 2.0625 c -0.537663,0.111041 -1.024662,0.383291 -1.375,0.78125 l -1.78125,-1.03125 -0.5,0.875 1.78125,1.03125 C -16.957063,17.966182 -17,18.225145 -17,18.5 c 0,0.274855 0.04294,0.533818 0.125,0.78125 l -1.78125,1.03125 0.5,0.875 1.78125,-1.03125 c 0.352503,0.40042 0.832682,0.670182 1.375,0.78125 V 23 h 1 v -2.0625 c 0.537663,-0.111041 1.024662,-0.383291 1.375,-0.78125 l 1.78125,1.03125 0.5,-0.875 -1.78125,-1.03125 C -12.042937,19.033818 -12,18.774855 -12,18.5 c 0,-0.274855 -0.04294,-0.533818 -0.125,-0.78125 l 1.78125,-1.03125 -0.5,-0.875 -1.78125,1.03125 C -12.977503,16.44333 -13.457682,16.173568 -14,16.0625 V 14 Z m 0.5,3.5 c 0.552,0 1,0.448 1,1 0,0.552 -0.448,1 -1,1 -0.552,0 -1,-0.448 -1,-1 0,-0.552 0.448,-1 1,-1 z"
         id="path4000"
         inkscape:connector-curvature="0"
         style="fill:#fcffff" />
      <path
         d="m -19,19 9,-0.0096 c 0,0 0,0 0,-2 C -10,14 -11,14 -14.5,14 c -3.5,0 -4.5,0 -4.5,3 0,2 0,2 0,2 z"
         id="path4002"
         inkscape:connector-curvature="0"
         style="opacity:0.3;fill:#fcffff;fill-rule:evenodd" />
    </g>
  </g>
</svg>
